X:1
T:Ah, quantefois
T:Jean de Castro
T:Source : La fleur des chansons à 3---Louvain---P.Phalèse---1574. Editor : André Vierendeeels (12/08/18) Notes : Original clefs : G2, C3, C3 Original note values have been halved Editorial accidentals above the staff
T:Ah, quantefois
T:©
T:©
T:©
C:Jean de Castro
Z:©
%%score [ 1 2 3 ]
L:1/8
Q:1/4=120
M:2/2
K:F
V:1 treble nm="Soprano" snm="S"
V:2 treble nm="Alto" snm="A"
V:3 treble-8 nm="Tenor" snm="T"
V:1
 z4 d3 e | f4 z2 f2- | f2 e2 fddd | A>B c2 G2 z G | B>cdB Adfe | dAdd d2 d2 | c4 d2 dd | %7
w: Ah, _|_ quan-|* te- fois, au son de|ma gui- ter- re, ie|ma- ri- ois ma voix, ie ma- ri-|ois ma voix de- vant ton|huis, com- bien de|
 dd c2 c c2 B | A4 z2 A2- | A2 B4 A2 | B2 d2 G2 A2 | BB A2 D4- | D4 z2 d2 | d2 d2 d2 z d | %14
w: nuitz en- co- re, ie me|suis, en|_ l'at- ten-|dant, cou- ché des-|sus la ter- re,|_ et|pour la voir, com-|
 ef g4 g2 | ^f4 z ddd | B2 cc dddd | Bcde f2 f2- | fd c2 B2 A2 | Bddd c2 BA- | AG F2 E2 DB | %21
w: bien de fois le|iour, ie trap- pas-|sois par de- vant, ie trap- pas-|sois _ _ _ _ par|_ de- vant son sé-|iour, ie trap pas- sois, par de-|* vant son sé- iour, par|
 A2 G2 A3 A | =B8 |] %23
w: de- vant son sé-|iour.|
V:2
 G3 A B4- | B2 F3 G A2 | B2 G2 F4 | z AAA E>F G2- | GD z D F>GAc | BF B4 B2 | A4 B2 BB | %7
w: Ah, _ _|_ Ah, _ _|quan- te- fois,|au son de ma gui- ter-|* re, ie ma- ri- ois ma|voix de- vant ton|huis, com- bien de|
 BB A2 A A2 G | F2 F2 F4- | F4 E4 | DF D2 E2 ^FF | G2 CC B,A, B,2- | B,A,/G,/ A,2 G,2 G2 | %13
w: nuitz en- co- re, ie me|suis, en l'at-|* ten-|dant, cou- ché des- sus la|ter- re, des- sus la ter-|* * * * re, et|
 B2 B2 A2 =B2 | cF B4 c2 | AAAA F2 B2 | GBBA B3 A | G4 z2 A2 | B2 G2 G2 ^F2 | G B2 A2 G F2 | %20
w: pour la voir, com-|bien de fois le|iour, ie trap- pas- sois par|de- vant son sé- iour, _|_ par|de- vant son sé-|iour, ie trap- pas- sois|
 E2 FD ^C>CDG | ^FF G4 F2 | G8 |] %23
w: par de- vant son sé- iour, per|de- vant son sé-|iour.|
V:3
 z2 G3 A B2 | z2 d3 e f2 | B2 c2 d2 z d | ddA>B c2 G2 | z GB>c dB A2 | d2 B4 B2 | f4 B2 BB | %7
w: Ah, _ _|Ah, _ _|quan- te- fois, au|son de ma gui- ter- re,|ie ma- ri- ois ma voix|de- vant ton|huis, com- bien de|
 BB f2 f F2 G | d2 d2 d4- | d4 c4 | B4 z2 d2 | G2 A2 GD G2- | G^F/E/ F2 G4 | g2 gg d2 g2 | %14
w: nuitz en- co- re, ie me|suis, en l'at-|* ten-|dant, cou-|ché des- sus la ter-|* * * * re,|et pour la voir, com-|
 cd _e4 c2 | d2 z d ddBB | _egff B2 G2 | GABc d2 d2 | B2 c2 d2 d2 | G g2 f2 e d2 | c2 dd AABG | %21
w: bien de fois le|iour, ie trap- pas- sois par|de- vant son sé- iour, sé-|* * * * iour, par|de- vant son sé-|iour, ie trap- pas- sois|par de- vant son sé- iour, par|
 d2 _e2 d2 d2 | G8 |] %23
w: de- vant son sé-|iour.|

